Adwaita++/actions/symbolic/document-save-symbolic.svg

<svg height="16" width="16" xmlns="http://www.w3.org/2000/svg">
  <g fill="#474747">
    <path d="m7 1v7.563l-1.281-1.283a1.015 1.015 0 0 0 -.719-.28h-1v1c0 .265.093.53.281.719l3 3 .282.281h.875l.28-.281 3-3c.19-.189.282-.454.282-.719v-1h-1c-.265 0-.53.093-.719.281l-1.281 1.282v-7.563z"/>
    <path d="m1.994 13 .006 2h12l-.006-2z" fill-rule="evenodd"/>
  </g>
</svg>

<svg xmlns="http://www.w3.org/2000/svg" width="16" height="16">
    <g color="#000" fill="#474747">
        <path d="M7 1v7.563L5.719 7.28A1.015 1.015 0 0 0 5 7H4v1c0 .265.093.53.281.719l3 3 .282.281h.875l.28-.281 3-3C11.908 8.53 12 8.265 12 8V7h-1c-.265 0-.53.093-.719.281L9 8.563V1z" style="line-height:normal;-inkscape-font-specification:'Bitstream Vera Sans';text-indent:0;text-align:start;text-decoration-line:none;text-transform:none;marker:none" font-weight="400" font-family="Bitstream Vera Sans" overflow="visible"/>
        <path d="M1.994 13L2 15h12l-.006-2z" style="marker:none" overflow="visible" fill-rule="evenodd"/>
    </g>
</svg>
